X: 28096
T: Mr. Hoole's
R: jig
M: 6/8
K: Eminor
E2 E2 DB,|DB,A, A,B,D|E2>E2FG|FED2<E2|EGB GBe|
Beg egb|b3b3|[e3c'3][e3b3]|[E2B2] [E2B2] DB,|
DB,A, A,B,D|[B,E][B,E][B,E] EFG|FED2<E2|GE BG eB|
ge bg e'b|c'3c'3|d'2 c'2 b2|E2 E2 DB,|
DB,A, A,B,D|E E/E/E EFG|FED2<E2|EGB GBe|
Beg egb|b3b3|[e3c'3][e3b3]|E2 E2 DB,|
DB,A, A,B,D|z2E EFG|FED2<E2|E3G3|
B3^d3|e3f3|^g3a3|

